app/images/markers/starbucks-marker-selected.svg

<svg height="75" viewBox="0 0 65 75" width="65" xmlns="http://www.w3.org/2000/svg" xmlns:xlink="http://www.w3.org/1999/xlink"><defs><path id="a" d="m30.5 70.3634348c2.6413 0 5.2033-9.5632646 7.647875-10.1944981 13.14245-3.4037702 22.852125-15.3666393 22.852125-29.6007264 0-16.8828226-13.65485-30.5682103-30.5-30.5682103s-30.5 13.6853877-30.5 30.5682103c0 14.2417291 9.7173 26.207655 22.8689 29.6053116 2.44.6266483 4.9959 10.1899129 7.6311 10.1899129z"/><filter id="b" height="111.4%" width="113.1%" x="-6.6%" y="-2.8%"><feOffset dx="0" dy="2" in="SourceAlpha" result="shadowOffsetOuter1"/><feGaussianBlur in="shadowOffsetOuter1" result="shadowBlurOuter1" stdDeviation="1"/><feColorMatrix in="shadowBlurOuter1" type="matrix" values="0 0 0 0 0   0 0 0 0 0   0 0 0 0 0  0 0 0 0.196076766 0"/></filter></defs><g fill="none"><g transform="translate(2)"><use fill="#000" filter="url(#b)" xlink:href="#a"/><use fill="#fff" fill-rule="evenodd" xlink:href="#a"/></g><path d="m26.8331889 2.72937434c-.1638391-.69658537-.8904954-2.49862142-2.2755418-2.49862142h-21.81182667c-1.38352941 0-2.10866873 1.80203605-2.28009288 2.54707953l-.44752322 2.47439236c-.05006192.28469141.02730651.57544009.21238391.79804454.1850774.22109014.45814241.34829269.74789473.34829269h1.25003096l1.75671827 24.89535526c.09102167 1.456772 1.30919504 2.5970519 2.77616099 2.5970519h13.78978331c1.4669659 0 2.6851393-1.1402799 2.776161-2.5894803l1.7536842-24.90292686h1.253065c.2912693 0 .5643344-.12720255.7494118-.34829269.1850774-.22109013.2624458-.51486744.2123839-.79804454l-.4581425-2.52285047zm-20.04904029 14.04225236c0-3.8584772 3.16452012-6.99916859 7.05417959-6.99916859 3.8881424 0 7.0511455 3.14220569 7.0511455 7.00068289 0 3.8554486-3.1630031 6.99614-7.0511455 6.99614-3.88965947 0-7.05417959-3.1406914-7.05417959-6.99614z" fill="#00a862" transform="translate(19 13)"/></g></svg>

<?xml version="1.0" encoding="UTF-8"?>
<svg width="65px" height="75px" viewBox="0 0 65 75" version="1.1" xmlns="http://www.w3.org/2000/svg" xmlns:xlink="http://www.w3.org/1999/xlink">
    <!-- Generator: Sketch 47.1 (45422) - http://www.bohemiancoding.com/sketch -->
    <title>starbucks-marker-selected</title>
    <desc>Created with Sketch.</desc>
    <defs>
        <path d="M30.5,70.3634348 C33.1413,70.3634348 35.7033,60.8001702 38.147875,60.1689367 C51.290325,56.7651665 61,44.8022974 61,30.5682103 C61,13.6853877 47.34515,0 30.5,0 C13.65485,0 0,13.6853877 0,30.5682103 C0,44.8099394 9.7173,56.7758653 22.8689,60.1735219 C25.3089,60.8001702 27.8648,70.3634348 30.5,70.3634348 Z" id="path-1"></path>
        <filter x="-6.6%" y="-2.8%" width="113.1%" height="111.4%" filterUnits="objectBoundingBox" id="filter-2">
            <feOffset dx="0" dy="2" in="SourceAlpha" result="shadowOffsetOuter1"></feOffset>
            <feGaussianBlur stdDeviation="1" in="shadowOffsetOuter1" result="shadowBlurOuter1"></feGaussianBlur>
            <feColorMatrix values="0 0 0 0 0   0 0 0 0 0   0 0 0 0 0  0 0 0 0.196076766 0" type="matrix" in="shadowBlurOuter1"></feColorMatrix>
        </filter>
    </defs>
    <g id="Page-1" stroke="none" stroke-width="1" fill="none" fill-rule="evenodd">
        <g id="starbucks-marker-selected" transform="translate(2.000000, 0.000000)" fill-rule="nonzero">
            <g id="Group">
                <g id="b-link">
                    <g id="b">
                        <use fill="black" fill-opacity="1" filter="url(#filter-2)" xlink:href="#path-1"></use>
                        <use fill="#FFFFFF" fill-rule="evenodd" xlink:href="#path-1"></use>
                    </g>
                </g>
            </g>
            <g id="Group" transform="translate(17.000000, 13.000000)" fill="#00A862">
                <g id="d-link">
                    <path d="M26.8331889,2.72937434 C26.6693498,2.03278897 25.9426935,0.230752916 24.5576471,0.230752916 L2.74582043,0.230752916 C1.36229102,0.230752916 0.637151703,2.03278897 0.465727554,2.77783245 L0.0182043344,5.25222481 C-0.0318575851,5.53691622 0.0455108359,5.8276649 0.230588235,6.05026935 C0.415665635,6.27135949 0.68873065,6.39856204 0.978482972,6.39856204 L2.22851393,6.39856204 L3.9852322,31.2939173 C4.07625387,32.7506893 5.29442724,33.8909692 6.76139319,33.8909692 L20.5511765,33.8909692 C22.0181424,33.8909692 23.2363158,32.7506893 23.3273375,31.3014889 L25.0810217,6.39856204 L26.3340867,6.39856204 C26.625356,6.39856204 26.8984211,6.27135949 27.0834985,6.05026935 C27.2685759,5.82917922 27.3459443,5.53540191 27.2958824,5.25222481 L26.8377399,2.72937434 L26.8331889,2.72937434 Z M6.78414861,16.7716267 C6.78414861,12.9131495 9.94866873,9.77245811 13.8383282,9.77245811 C17.7264706,9.77245811 20.8894737,12.9146638 20.8894737,16.773141 C20.8894737,20.6285896 17.7264706,23.769281 13.8383282,23.769281 C9.94866873,23.769281 6.78414861,20.6285896 6.78414861,16.773141 L6.78414861,16.7716267 Z" id="d"></path>
                </g>
            </g>
        </g>
    </g>
</svg>
